X: 2154
T: Aughavas, The
R: reel
M: 4/4
K: Edorian
E3 F GFGA|BGdB AFDF|E3 G B2 Bc|dBAd BEED|
E3 F GFGA|B3 =c AFDF|E3 G B2 Bc|dBAd Beed|
e2 ef gfef|d3 f afdf|e2 ef gfef|dBAd Beed|
e2 ef gfef|d3 f af d2|BdBA FABc|dBAd BE E2|

